packages/gestalt-icons-android/vr-theme/ic_vr_lasso-magic_gestalt.svg

<svg width="25" height="24" viewBox="0 0 25 24" fill="none" xmlns="http://www.w3.org/2000/svg">
<path d="M22.502 3C23.3304 3 24.002 2.32843 24.002 1.5C24.002 0.671573 23.3304 0 22.502 0C21.6735 0 21.002 0.671573 21.002 1.5C21.002 2.32843 21.6735 3 22.502 3Z" fill="black"/>
<path d="M17.602 2H18.402L18.5176 2.49648C18.8634 3.98012 20.0218 5.13857 21.5055 5.48431L22.002 5.6V6.4L21.5055 6.51569C20.0218 6.86143 18.8634 8.01988 18.5176 9.50352L18.402 10H17.602L17.4863 9.50352C17.1405 8.01988 15.9821 6.86143 14.4984 6.51569L14.002 6.4V5.6L14.4984 5.48431C15.9821 5.13857 17.1405 3.98012 17.4863 2.49648L17.602 2Z" fill="black"/>
<path fill-rule="evenodd" clip-rule="evenodd" d="M12.3953 4.08109C9.79851 3.80311 7.37476 4.25461 5.52734 5.2035C3.67854 6.1531 2.46927 7.56046 2.11178 9.19075C1.66751 11.2168 2.60253 13.4163 4.68673 15.1459C5.60126 13.306 7.54872 11.9934 9.50514 12C10.8484 12.0046 12.16 12.56 13.0348 13.4975C13.935 14.4624 14.3695 15.8433 13.848 17.3305C13.7647 17.5683 13.6663 17.789 13.5545 17.9931C15.3284 17.9366 16.9626 17.5378 18.3088 16.8803C20.2511 15.9316 21.5236 14.488 21.8917 12.8092C22.0855 11.9252 22.0199 11.0292 21.7214 10.1543L23.6143 9.50854C24.0216 10.7027 24.1232 11.9703 23.8453 13.2376C23.3127 15.6665 21.5189 17.5383 19.1866 18.6774C16.8983 19.795 14.0239 20.2494 11.0461 19.8664C10.0838 20.0882 9.05378 19.9904 8.12389 19.7449C7.45418 19.568 6.79859 19.3048 6.20334 18.988C6.26164 19.1718 6.33283 19.3442 6.41276 19.5054C6.81796 20.3225 7.46726 20.8838 7.9005 21.1314L6.90822 22.8679C6.1748 22.4488 5.2241 21.6101 4.62097 20.3939C4.19019 19.5252 3.94547 18.4787 4.07072 17.2937C4.01822 17.2257 3.96821 17.1565 3.92106 17.0861C1.13343 15.0029 -0.539304 11.9432 0.158194 8.76237C0.675179 6.40472 2.38149 4.57091 4.61356 3.42445C6.847 2.27729 9.66939 1.77787 12.6082 2.09246L12.3953 4.08109ZM6.34069 16.3508C6.30375 16.4493 6.27056 16.5462 6.24091 16.6416C6.29903 16.6872 6.36095 16.7337 6.42685 16.7809C7.03229 17.2142 7.82369 17.597 8.63452 17.8111C9.45526 18.0279 10.2054 18.0487 10.7747 17.8692C11.2938 17.7055 11.717 17.3637 11.9607 16.6688C12.2086 15.9617 12.0245 15.3464 11.5724 14.8619C11.0949 14.3501 10.3204 14.0028 9.49834 14C8.28028 13.9959 6.86178 14.9612 6.34069 16.3508Z" fill="black"/>
</svg>

<svg xmlns="http://www.w3.org/2000/svg" width="24" height="24"><path d="M21 1.5a1.5 1.5 0 1 1 3 0 1.5 1.5 0 0 1-3 0m-3.4.5h.8l.12.5a4 4 0 0 0 2.99 2.98l.5.12v.8l-.5.12a4 4 0 0 0-3 2.98l-.1.5h-.8l-.12-.5a4 4 0 0 0-3-2.98L14 6.4v-.8l.5-.12a4 4 0 0 0 2.99-2.98zm-5.2 2.08A12.3 12.3 0 0 0 5.53 5.2c-1.85.95-3.06 2.36-3.42 4-.44 2.02.5 4.22 2.58 5.95A5.6 5.6 0 0 1 9.5 12a5 5 0 0 1 3.52 1.5c.9.96 1.34 2.34.82 3.83q-.13.36-.3.66c1.78-.05 3.41-.45 4.76-1.11 1.94-.95 3.21-2.4 3.58-4.07q.29-1.33-.17-2.66l1.9-.64q.62 1.81.23 3.73c-.54 2.43-2.33 4.3-4.66 5.44a14.5 14.5 0 0 1-8.14 1.19c-.97.22-2 .12-2.93-.13A9 9 0 0 1 6.2 19q.09.27.21.52a4 4 0 0 0 1.5 1.62l-1 1.74a6 6 0 0 1-2.29-2.48 5.6 5.6 0 0 1-.55-3.1l-.15-.2C1.13 15-.54 11.94.16 8.76.68 6.4 2.38 4.57 4.6 3.42a14.3 14.3 0 0 1 8-1.33zM6.34 16.35l-.1.3.19.13c.6.43 1.4.82 2.2 1.03.83.22 1.58.24 2.14.06.52-.16.95-.5 1.2-1.2a1.7 1.7 0 0 0-.4-1.8A3 3 0 0 0 9.5 14c-1.22 0-2.64.96-3.16 2.35"/></svg>
